assets/svgs/virtual-reality-color/VirtualRealityColor6.svg

<svg xmlns="http://www.w3.org/2000/svg" data-name="Layer 3" viewBox="0 0 128 128"><path fill="#50b8c9" d="M52.991 54.212V28.859a5.151 5.151 0 015.135-5.134h11.745a5.15 5.15 0 015.135 5.134v25.353z"/><path fill="#50b8c9" d="M114.385 79.243a25.031 25.031 0 01-25.032 25.032H38.647a25.031 25.031 0 01-25.032-25.032 25.031 25.031 0 0125.032-25.031h50.706a25.031 25.031 0 0125.032 25.031z"/><path fill="#c5f3ff" d="M48.041 54.212v7.368s.507 6.53 15.328 6.53h10.154s6.448-2.546 6.448-7.9v-6z"/><circle cx="35.922" cy="67.372" r="5.618" fill="#c5f3ff"/><path fill="#000a3a" d="M89.353 52.668h-12.8V28.859a6.687 6.687 0 00-6.679-6.679H58.126a6.687 6.687 0 00-6.679 6.679v23.809h-12.8a26.576 26.576 0 100 53.151h50.706a26.576 26.576 0 100-53.151zm-39.768 3.089h28.829v4.279a6.391 6.391 0 01-6.384 6.384H55.969a6.391 6.391 0 01-6.384-6.384zm8.54-30.487h11.746a3.6 3.6 0 013.591 3.59v16.748H54.535V28.859a3.6 3.6 0 013.591-3.59zm-3.59 23.43h18.927v3.972H54.535zm-15.888 7.06H46.5v4.279a9.483 9.483 0 009.472 9.472H72.03a9.483 9.483 0 009.47-9.475v-4.279h7.85A23.5 23.5 0 01112.762 77.7H15.238a23.5 23.5 0 0123.409-21.943zm50.706 46.974H38.647a23.5 23.5 0 01-23.409-21.946h97.524a23.5 23.5 0 01-23.409 21.943z"/><path fill="#000a3a" d="M35.922 74.535a7.163 7.163 0 10-7.162-7.163 7.171 7.171 0 007.162 7.163zm0-11.237a4.074 4.074 0 11-4.073 4.074 4.079 4.079 0 014.073-4.072z"/><circle cx="44.191" cy="91.01" r="4.582" fill="#000a3a"/><circle cx="83.492" cy="91.01" r="4.814" fill="#000a3a"/><path fill="#000a3a" d="M56.278 61.58h15.7a1.544 1.544 0 100-3.089h-15.7a1.544 1.544 0 000 3.089z"/></svg>

<svg id="Layer_3" data-name="Layer 3" xmlns="http://www.w3.org/2000/svg" viewBox="0 0 128 128"><title>Artboard 102</title><path d="M52.991,54.212V28.859a5.151,5.151,0,0,1,5.135-5.134H69.871a5.15,5.15,0,0,1,5.135,5.134V54.212Z" style="fill:#50b8c9"/><path d="M114.385,79.243a25.031,25.031,0,0,1-25.032,25.032H38.647A25.031,25.031,0,0,1,13.615,79.243h0A25.031,25.031,0,0,1,38.647,54.212H89.353a25.031,25.031,0,0,1,25.032,25.031Z" style="fill:#50b8c9"/><path d="M48.041,54.212V61.58s.507,6.53,15.328,6.53H73.523s6.448-2.546,6.448-7.9v-6Z" style="fill:#c5f3ff"/><circle cx="35.922" cy="67.372" r="5.618" style="fill:#c5f3ff"/><path d="M89.353,52.668h-12.8V28.859a6.687,6.687,0,0,0-6.679-6.679H58.126a6.687,6.687,0,0,0-6.679,6.679V52.668h-12.8a26.576,26.576,0,1,0,0,53.151H89.353a26.576,26.576,0,1,0,0-53.151ZM49.585,55.757H78.414v4.279A6.391,6.391,0,0,1,72.03,66.42H55.969a6.391,6.391,0,0,1-6.384-6.384Zm8.54-30.487H69.871a3.6,3.6,0,0,1,3.591,3.59V45.608H54.535V28.859A3.6,3.6,0,0,1,58.126,25.269ZM54.535,48.7H73.462v3.972H54.535Zm-15.888,7.06H46.5v4.279a9.483,9.483,0,0,0,9.472,9.472H72.03A9.483,9.483,0,0,0,81.5,60.036V55.757h7.85A23.5,23.5,0,0,1,112.762,77.7H15.238A23.5,23.5,0,0,1,38.647,55.757Zm50.706,46.974H38.647A23.5,23.5,0,0,1,15.238,80.788h97.524A23.5,23.5,0,0,1,89.353,102.731Z" style="fill:#000a3a"/><path d="M35.922,74.535a7.163,7.163,0,1,0-7.162-7.163A7.171,7.171,0,0,0,35.922,74.535Zm0-11.237a4.074,4.074,0,1,1-4.073,4.074A4.079,4.079,0,0,1,35.922,63.3Z" style="fill:#000a3a"/><circle cx="44.191" cy="91.01" r="4.582" style="fill:#000a3a"/><circle cx="83.492" cy="91.01" r="4.814" style="fill:#000a3a"/><path d="M56.278,61.58h15.7a1.544,1.544,0,1,0,0-3.089h-15.7a1.544,1.544,0,0,0,0,3.089Z" style="fill:#000a3a"/></svg>
